mkdocs-material/material/.icons/dark.svg

<svg viewBox="0 0 407 407" fill="none" xmlns="http://www.w3.org/2000/svg"><path fill-rule="evenodd" clip-rule="evenodd" d="M0 200C0 89.543 89.543 0 200 0h6.649c110.457 0 200 89.543 200 200v206.649H200c-110.457 0-200-89.543-200-200V200zm162.064 107.163c0-22.649 41.004-82.009 41.004-82.009s41.004 59.36 41.004 82.009c0 22.648-18.362 41.004-41.004 41.004s-41.004-18.356-41.004-41.004zm41.004-125.942s-41.004-59.36-41.004-82.009c0-22.648 18.362-41.004 41.004-41.004s41.004 18.356 41.004 41.004c0 22.649-41.004 82.009-41.004 82.009zm67.13 109.463c-19.614-11.324-50.519-76.514-50.519-76.514s71.909-5.831 91.523 5.493c19.614 11.324 26.33 36.404 15.009 56.013-11.321 19.608-36.399 26.333-56.013 15.008zm-83.742-95.186s-71.91 5.831-91.524-5.494c-19.614-11.324-26.33-36.404-15.008-56.012 11.32-19.609 36.398-26.333 56.012-15.009 19.614 11.324 50.52 76.515 50.52 76.515zm125.667-6.397c-19.614 11.324-91.524 5.494-91.524 5.494s30.905-65.191 50.52-76.515c19.614-11.324 44.691-4.6 56.012 15.008 11.321 19.609 4.606 44.689-15.008 56.013zm-124.748 24.165s-30.905 65.191-50.519 76.515c-19.614 11.324-44.692 4.6-56.013-15.008-11.32-19.609-4.605-44.689 15.009-56.013 19.614-11.324 91.523-5.494 91.523-5.494z" fill="#868787"/></svg>

<svg width="407" height="407" viewBox="0 0 407 407" fill="none" xmlns="http://www.w3.org/2000/svg">
<path fill-rule="evenodd" clip-rule="evenodd" d="M0 200C0 89.543 89.543 0 200 0H206.649C317.106 0 406.649 89.543 406.649 200V406.649H200C89.543 406.649 0 317.106 0 206.649V200ZM162.064 307.163C162.064 284.514 203.068 225.154 203.068 225.154C203.068 225.154 244.072 284.514 244.072 307.163C244.072 329.811 225.71 348.167 203.068 348.167C180.426 348.167 162.064 329.811 162.064 307.163ZM203.068 181.221C203.068 181.221 162.064 121.861 162.064 99.2123C162.064 76.5639 180.426 58.2081 203.068 58.2081C225.71 58.2081 244.072 76.5639 244.072 99.2123C244.072 121.861 203.068 181.221 203.068 181.221ZM270.198 290.684C250.584 279.36 219.679 214.17 219.679 214.17C219.679 214.17 291.588 208.339 311.202 219.663C330.816 230.987 337.532 256.067 326.211 275.676C314.89 295.284 289.812 302.009 270.198 290.684ZM186.456 195.498C186.456 195.498 114.546 201.329 94.9321 190.004C75.318 178.68 68.6025 153.6 79.9235 133.992C91.2445 114.383 116.322 107.659 135.936 118.983C155.55 130.307 186.456 195.498 186.456 195.498ZM312.123 189.101C292.509 200.425 220.599 194.595 220.599 194.595C220.599 194.595 251.504 129.404 271.119 118.08C290.733 106.756 315.81 113.48 327.131 133.088C338.452 152.697 331.737 177.777 312.123 189.101ZM187.375 213.266C187.375 213.266 156.47 278.457 136.856 289.781C117.242 301.105 92.1642 294.381 80.8432 274.773C69.5222 255.164 76.2376 230.084 95.8518 218.76C115.466 207.436 187.375 213.266 187.375 213.266Z" fill="#868787"/>
</svg>
